docs/.gitbook/assets/icon-line-chart-16@dark.svg

<svg width="32" height="32" viewBox="0 0 16 16" fill="none" xmlns="http://www.w3.org/2000/svg">
<rect x="0" y="0" width="16" height="16" fill="#181c1f"/>
<path fill-rule="evenodd" clip-rule="evenodd" d="M1 3.75C1 2.23122 2.23122 1 3.75 1H12.25C13.7688 1 15 2.23122 15 3.75V12.25C15 13.7688 13.7688 15 12.25 15H3.75C2.23122 15 1 13.7688 1 12.25V3.75ZM3.75 2.5C3.05964 2.5 2.5 3.05964 2.5 3.75V12.25C2.5 12.9404 3.05964 13.5 3.75 13.5H12.25C12.9404 13.5 13.5 12.9404 13.5 12.25V3.75C13.5 3.05964 12.9404 2.5 12.25 2.5H3.75ZM11.666 4.12596C12.0107 4.35573 12.1038 4.82138 11.874 5.16603L8.87404 9.66603C8.7597 9.83754 8.5798 9.95443 8.37663 9.98923C8.17345 10.024 7.96491 9.97368 7.8 9.85L6.56344 8.92258L5.43936 11.5454C5.27619 11.9262 4.83528 12.1025 4.45456 11.9394C4.07384 11.7762 3.89747 11.3353 4.06064 10.9546L5.56064 7.45456C5.65129 7.24305 5.83401 7.08486 6.05632 7.02544C6.27863 6.96601 6.51591 7.01193 6.7 7.15L8.06574 8.17431L10.626 4.33397C10.8557 3.98933 11.3214 3.8962 11.666 4.12596Z" fill="#fff"/>
</svg>

<svg xmlns="http://www.w3.org/2000/svg" width="32" height="32" fill="none" viewBox="0 0 16 16"><path fill="#181c1f" d="M0 0h16v16H0z"/><path fill="#fff" fill-rule="evenodd" d="M1 3.75A2.75 2.75 0 0 1 3.75 1h8.5A2.75 2.75 0 0 1 15 3.75v8.5A2.75 2.75 0 0 1 12.25 15h-8.5A2.75 2.75 0 0 1 1 12.25zM3.75 2.5c-.69 0-1.25.56-1.25 1.25v8.5c0 .69.56 1.25 1.25 1.25h8.5c.69 0 1.25-.56 1.25-1.25v-8.5c0-.69-.56-1.25-1.25-1.25zm7.916 1.626a.75.75 0 0 1 .208 1.04l-3 4.5A.75.75 0 0 1 7.8 9.85l-1.237-.927-1.124 2.622a.75.75 0 1 1-1.378-.59l1.5-3.5A.75.75 0 0 1 6.7 7.15l1.366 1.024 2.56-3.84a.75.75 0 0 1 1.04-.208" clip-rule="evenodd"/></svg>
